X:1
T: Barbara's Strathspey
T: 8x32S 3C (RSCDS Bk 46, Sue McKinnell)
P: Barbara's Strathspey
C: by Mady Newfield
C: Arr. T. Traub 10-27-2011
K: F
M: 4/4
L: 1/8
D>E|"Dm"F>EF>d "F"c>AF>A|"C"G>EC>E G2 A>G|"Dm"F>GF>D "Gm"G<FE<D|"A"A2 A,2 A2 F>G|"F"A>FA,>A "C"G2 A>E|
"Dm"F>GA>F "Bb"B2 A>G|"F"A>Fc>A "C"G2 E>C|"Bb"D<FF>G "F"F2 F>G|| "F"A>FC>A "C"G2 A>E|"Dm"F>DA,>F "A"E2 F>E|"Bb"D<FF>D "F"C>F!beambr1!A<c|
"Gm"c>BA>B "C"G2 F>G|"F"A>Fc>A "C"G2 F>E|"Dm"F>ED>G "Bb"F2 E>D|"F"C>Ac>A "C"G2 E>C|"Bb"D<FF>G "F"F2 |]
